packages/ckeditor5-icons/theme/icons/thumb-up.svg

<svg viewBox="0 0 20 20" xmlns="http://www.w3.org/2000/svg">
<path fill-rule="evenodd" clip-rule="evenodd" d="M6.05025 8.6087V16.9892C6.05025 18.0995 6.95318 18.9995 8.067 18.9995H15.6203C16.5159 18.9995 17.3042 18.4108 17.5558 17.554L19.9175 9.51268C20.2955 8.22564 19.3273 6.93752 17.982 6.93752H13.6292L14.4171 4.31971C14.7303 3.27897 14.1572 2.17848 13.1231 1.83488L12.4247 1.60282C11.5909 1.32574 10.673 1.61895 10.156 2.32756L6.43598 7.42628C6.18529 7.76989 6.05025 8.18383 6.05025 8.6087ZM7.56281 16.9892V8.6087C7.56281 8.50248 7.59657 8.399 7.65924 8.3131L11.3792 3.21438C11.5085 3.03722 11.738 2.96392 11.9464 3.03319L12.6448 3.26525C12.9034 3.35115 13.0466 3.62627 12.9683 3.88646L11.791 7.79827C11.694 8.12073 11.9362 8.44527 12.274 8.44527H17.982C18.3183 8.44527 18.5604 8.7673 18.4659 9.08906L16.1042 17.1304C16.0413 17.3446 15.8442 17.4918 15.6203 17.4918H8.067C7.78854 17.4918 7.56281 17.2667 7.56281 16.9892Z"/>
<path fill-rule="evenodd" clip-rule="evenodd" d="M3.32764 6.93749H1.71424C0.76749 6.93749 0 7.70254 0 8.64628V17.2907C0 18.2344 0.767492 18.9995 1.71424 18.9995H3.32764C4.27438 18.9995 5.04187 18.2344 5.04187 17.2907V8.64628C5.04187 7.70254 4.27438 6.93749 3.32764 6.93749ZM1.51256 8.64628C1.51256 8.53525 1.60285 8.44524 1.71424 8.44524H3.32764C3.43902 8.44524 3.52931 8.53525 3.52931 8.64628V17.2907C3.52931 17.4017 3.43902 17.4917 3.32764 17.4917H1.71424C1.60285 17.4917 1.51256 17.4017 1.51256 17.2907V8.64628Z"/>
</svg>

<svg xmlns="http://www.w3.org/2000/svg" viewBox="0 0 20 20"><path fill-rule="evenodd" d="M6.05 8.609v8.38c0 1.11.903 2.01 2.017 2.01h7.553c.896 0 1.684-.588 1.936-1.445l2.361-8.041a2.012 2.012 0 0 0-1.935-2.575h-4.353l.788-2.618a2.01 2.01 0 0 0-1.294-2.485l-.698-.232a2.02 2.02 0 0 0-2.269.725l-3.72 5.098c-.25.344-.386.758-.386 1.183m1.513 8.38V8.61c0-.107.034-.21.096-.296l3.72-5.099a.505.505 0 0 1 .567-.18l.699.231a.5.5 0 0 1 .323.621l-1.177 3.912a.503.503 0 0 0 .483.647h5.708c.336 0 .578.322.484.644l-2.362 8.041a.504.504 0 0 1-.484.362H8.067a.503.503 0 0 1-.504-.503M3.328 6.937H1.714C.767 6.937 0 7.703 0 8.647v8.644C0 18.234.767 19 1.714 19h1.614c.946 0 1.714-.766 1.714-1.71V8.647c0-.943-.768-1.709-1.714-1.709m-1.815 1.71c0-.112.09-.202.201-.202h1.614c.111 0 .201.09.201.201v8.645a.2.2 0 0 1-.201.2H1.714a.2.2 0 0 1-.201-.2z" clip-rule="evenodd"/></svg>
